src/images/pages/dmt5_signals/copy_trade.svg

<svg width="77" height="64" viewBox="0 0 77 64" fill="none" xmlns="http://www.w3.org/2000/svg">
<path fill-rule="evenodd" clip-rule="evenodd" d="M30.5701 55.7079C30.5701 55.1512 30.1249 54.6998 29.5759 54.6998H1.98831V21.9698C1.98831 21.4131 1.54317 20.9617 0.994169 20.9617C0.445132 20.9617 0 21.4131 0 21.9698V55.7079C0 56.2647 0.445132 56.7161 0.994169 56.7161H29.5759C30.1249 56.7161 30.5701 56.2647 30.5701 55.7079ZM0.994169 16.9833C1.54317 16.9833 1.98831 16.5319 1.98831 15.9751V12.627H11.4575C12.0065 12.627 12.4516 12.1756 12.4516 11.6189V2.01631H39.6019V7.72738C39.6019 8.28411 40.0471 8.73555 40.5961 8.73555C41.1451 8.73555 41.5902 8.28411 41.5902 7.72738V1.00814C41.5902 0.451403 41.1451 0 40.5961 0L11.472 0.000104898L11.4575 0C11.3065 0 11.1634 0.0341362 11.0352 0.0952118C10.9336 0.143501 10.8384 0.210184 10.7545 0.295276L0.294359 10.9028C0.123883 11.0741 0.0142589 11.3076 0.00129378 11.567C0.000434733 11.5842 0 11.6015 0 11.6189V15.9751C0 16.5319 0.445132 16.9833 0.994169 16.9833ZM3.39423 10.6107H10.4633V3.44204L3.39423 10.6107ZM13.5186 23.2547H14.8548C15.4038 23.2547 15.849 23.7061 15.849 24.2628V38.8306C15.849 39.3873 15.4038 39.8388 14.8548 39.8388H13.5186V49.4414C13.5186 49.9981 13.0735 50.4495 12.5245 50.4495C11.9755 50.4495 11.5303 49.9981 11.5303 49.4414V39.8388H10.1946C9.64564 39.8388 9.20051 39.3873 9.20051 38.8306V24.2628C9.20051 23.7061 9.64564 23.2547 10.1946 23.2547H11.5303V16.7037C11.5303 16.1469 11.9755 15.6955 12.5245 15.6955C13.0735 15.6955 13.5186 16.1469 13.5186 16.7037V23.2547ZM12.5117 25.271L12.5245 25.271L12.5373 25.271H13.8606V37.8225H11.1888V25.271H12.5117ZM23.1254 30.8537H21.7893V20.6208C21.7893 20.064 21.3441 19.6126 20.7951 19.6126C20.2461 19.6126 19.8009 20.064 19.8009 20.6208V30.8537H18.4652C17.9162 30.8537 17.4711 31.3051 17.4711 31.8619V42.4725C17.4711 43.0293 17.9162 43.4807 18.4652 43.4807H19.8009V47.778C19.8009 48.3347 20.2461 48.7861 20.7951 48.7861C21.3441 48.7861 21.7893 48.3347 21.7893 47.778V43.4807H23.1254C23.6744 43.4807 24.1195 43.0293 24.1195 42.4725V31.8619C24.1195 31.3051 23.6744 30.8537 23.1254 30.8537ZM20.7951 41.4644L22.1312 41.4644V32.87H19.4594V41.4644L20.7951 41.4644ZM26.7346 21.3661H28.0712V17.0689C28.0712 16.5122 28.5163 16.0607 29.0653 16.0607C29.6143 16.0607 30.0595 16.5122 30.0595 17.0689V21.3661H31.3947C31.9437 21.3661 32.3889 21.8175 32.3889 22.3742V33.3678C32.3889 33.9246 31.9437 34.376 31.3947 34.376H30.0595V47.9708C30.0595 48.5275 29.6143 48.9789 29.0653 48.9789C28.5163 48.9789 28.0712 48.5275 28.0712 47.9708V34.376H26.7346C26.1856 34.376 25.7404 33.9246 25.7404 33.3678V22.3742C25.7404 21.8175 26.1856 21.3661 26.7346 21.3661ZM27.7288 23.3824H29.0528L29.0653 23.3825L29.0778 23.3824H30.4006V32.3597H29.0764L29.0653 32.3596L29.0543 32.3597H27.7288V23.3824ZM36.2042 24.2672C36.7532 24.2672 37.1983 23.8157 37.1983 23.259V19.9109H46.6675C47.2165 19.9109 47.6616 19.4595 47.6616 18.9027V9.3002H74.8119V61.9837H37.1983V29.2538C37.1983 28.697 36.7532 28.2456 36.2042 28.2456C35.6552 28.2456 35.21 28.697 35.21 29.2538V62.9918C35.21 63.5485 35.6552 64 36.2042 64H75.8061C76.3551 64 76.8003 63.5485 76.8003 62.9918V8.29206C76.8003 7.73532 76.3551 7.28389 75.8061 7.28389L46.6842 7.28403L46.6675 7.28389C46.5127 7.28389 46.3661 7.31978 46.2355 7.38382C46.1375 7.4317 46.0458 7.49682 45.9645 7.5792L35.5012 18.1899C35.3213 18.3723 35.21 18.6244 35.21 18.9027V23.259C35.21 23.8157 35.6552 24.2672 36.2042 24.2672ZM38.6042 17.8946H45.6733V10.7259L38.6042 17.8946ZM48.7288 30.5385H50.0649C50.6139 30.5385 51.0591 30.99 51.0591 31.5467V46.1145C51.0591 46.6712 50.6139 47.1227 50.0649 47.1227H48.7288V56.7252C48.7288 57.282 48.2836 57.7334 47.7346 57.7334C47.1856 57.7334 46.7404 57.282 46.7404 56.7252V47.1227H45.4047C44.8557 47.1227 44.4106 46.6712 44.4106 46.1145V31.5467C44.4106 30.99 44.8557 30.5385 45.4047 30.5385H46.7404V23.9875C46.7404 23.4308 47.1856 22.9794 47.7346 22.9794C48.2836 22.9794 48.7288 23.4308 48.7288 23.9875V30.5385ZM47.7248 32.5549L47.7346 32.5549L47.7444 32.5549H49.0708V45.1063H46.3989V32.5549H47.7248ZM58.3352 38.1376H56.9993V27.9047C56.9993 27.3479 56.5542 26.8965 56.0052 26.8965C55.4562 26.8965 55.011 27.3479 55.011 27.9047V38.1376H53.675C53.126 38.1376 52.6809 38.589 52.6809 39.1457V49.7565C52.6809 50.3132 53.126 50.7646 53.675 50.7646H55.011V55.0618C55.011 55.6186 55.4562 56.07 56.0052 56.07C56.5542 56.07 56.9993 55.6186 56.9993 55.0618V50.7646H58.3352C58.8842 50.7646 59.3293 50.3132 59.3293 49.7565V39.1457C59.3293 38.589 58.8842 38.1376 58.3352 38.1376ZM56.0125 48.7483H57.341V40.1539H54.6692V48.7483H55.9978L56.0052 48.7483L56.0125 48.7483ZM61.9447 28.6499H63.2813V24.3528C63.2813 23.7961 63.7264 23.3446 64.2754 23.3446C64.8244 23.3446 65.2695 23.7961 65.2695 24.3528V28.6499H66.6048C67.1538 28.6499 67.599 29.1013 67.599 29.6581V40.6516C67.599 41.2084 67.1538 41.6598 66.6048 41.6598H65.2695V55.2547C65.2695 55.8114 64.8244 56.2628 64.2754 56.2628C63.7264 56.2628 63.2813 55.8114 63.2813 55.2547V41.6598H61.9447C61.3957 41.6598 60.9505 41.2084 60.9505 40.6516V29.6581C60.9505 29.1013 61.3957 28.6499 61.9447 28.6499ZM62.9388 30.6662H64.2583L64.2754 30.6663L64.2926 30.6662H65.6107V39.6435H62.9388V30.6662Z" fill="#2A3052"/>
</svg>

<svg width="77" height="64" fill="none" xmlns="http://www.w3.org/2000/svg"><path fill-rule="evenodd" clip-rule="evenodd" d="M30.57 55.708c0-.557-.445-1.008-.994-1.008H1.988V21.97c0-.557-.445-1.008-.994-1.008-.549 0-.994.451-.994 1.008v33.738c0 .557.445 1.008.994 1.008h28.582c.549 0 .994-.451.994-1.008zM.994 16.983c.55 0 .994-.451.994-1.008v-3.348h9.47c.549 0 .994-.451.994-1.008V2.016h27.15v5.711c0 .557.445 1.009.994 1.009.55 0 .994-.452.994-1.009V1.008C41.59.451 41.145 0 40.596 0H11.458a.979.979 0 00-.704.295L.294 10.903a1.011 1.011 0 00-.294.716v4.356c0 .557.445 1.008.994 1.008zm2.4-6.372h7.07V3.442l-7.07 7.169zM13.52 23.255h1.336c.549 0 .994.451.994 1.008V38.83c0 .556-.445 1.008-.994 1.008h-1.336v9.602c0 .557-.446 1.008-.995 1.008-.548 0-.994-.45-.994-1.008V39.84h-1.335c-.55 0-.994-.452-.994-1.008V24.263c0-.557.445-1.008.994-1.008h1.335v-6.551c0-.557.446-1.009.995-1.009.548 0 .994.452.994 1.009v6.55zm-1.007 2.016h1.349v12.551h-2.672V25.271h1.323zm10.613 5.583H21.79V20.62c0-.557-.445-1.008-.994-1.008-.549 0-.994.451-.994 1.008v10.233h-1.336c-.549 0-.994.451-.994 1.008v10.61c0 .557.445 1.009.994 1.009h1.336v4.297c0 .557.445 1.008.994 1.008.55 0 .994-.451.994-1.008v-4.297h1.336c.55 0 .994-.452.994-1.009v-10.61c0-.557-.445-1.008-.994-1.008zm-2.33 10.61h1.336V32.87H19.46v8.594h1.336zm5.94-20.098h1.336V17.07c0-.557.445-1.008.994-1.008.55 0 .994.451.994 1.008v4.297h1.336c.549 0 .994.451.994 1.008v10.994c0 .557-.445 1.008-.994 1.008H30.06v13.595c0 .557-.446 1.008-.995 1.008-.549 0-.994-.451-.994-1.008V34.376h-1.336c-.55 0-.995-.451-.995-1.008V22.374c0-.556.446-1.008.995-1.008zm.994 2.016H30.4v8.978H27.729v-8.978zm8.475.885c.55 0 .994-.451.994-1.008v-3.348h9.47c.549 0 .994-.452.994-1.008V9.3h27.15v52.684H37.198v-32.73c0-.557-.445-1.008-.994-1.008-.549 0-.994.451-.994 1.008v33.738c0 .556.445 1.008.994 1.008h39.602c.55 0 .994-.452.994-1.008v-54.7c0-.557-.445-1.008-.994-1.008H46.667a.978.978 0 00-.703.295L35.502 18.19c-.18.183-.291.435-.291.714v4.356c0 .557.445 1.008.994 1.008zm2.4-6.372h7.07v-7.17l-7.07 7.17zM48.73 30.538h1.336c.549 0 .994.452.994 1.009v14.567c0 .557-.445 1.009-.994 1.009h-1.336v9.602c0 .557-.445 1.008-.994 1.008-.55 0-.995-.451-.995-1.008v-9.602h-1.335c-.55 0-.994-.452-.994-1.008V31.547c0-.557.445-1.009.994-1.009h1.335v-6.55c0-.557.446-1.009.995-1.009.549 0 .994.452.994 1.009v6.55zm-1.004 2.017h1.346v12.551h-2.672V32.555h1.326zm10.61 5.583H57V27.905c0-.557-.445-1.009-.994-1.009-.549 0-.994.452-.994 1.009v10.233h-1.336c-.549 0-.994.451-.994 1.008v10.61c0 .557.445 1.009.994 1.009h1.336v4.297c0 .557.445 1.008.994 1.008.55 0 .994-.451.994-1.008v-4.297h1.336c.55 0 .994-.452.994-1.008V39.145c0-.557-.445-1.008-.994-1.008zm-2.322 10.61h1.328v-8.594h-2.672v8.594H56.013zm5.932-20.098h1.336v-4.297c0-.557.445-1.008.994-1.008.55 0 .994.451.994 1.008v4.297h1.336c.549 0 .994.451.994 1.008v10.994c0 .556-.445 1.008-.994 1.008h-1.336v13.595c0 .556-.445 1.008-.994 1.008-.549 0-.994-.452-.994-1.008V41.66h-1.336c-.55 0-.995-.452-.995-1.008V29.658c0-.557.446-1.008.995-1.008zm.994 2.016h2.672v8.978h-2.672v-8.978z" fill="#2A3052"/></svg>
